svg/blobs-icons/no-decorations/map-pin.svg

<svg xmlns="http://www.w3.org/2000/svg" xmlns:xlink="http://www.w3.org/1999/xlink" preserveAspectRatio="xMidYMid" width="177" height="217" viewBox="0 0 177 217"><defs><style>.cls-3{fill:#2476ff}.cls-4{fill:#1c5ac1}.cls-5{fill:#ededed}</style></defs><g id="group-165svg"><path d="M23.369 148.305S23.369 148.313 23.369 148.313 24.817 149.844 24.817 149.844C25.18 150.229 25.526 150.613 25.903 150.991H25.919s62.565 65.903 62.565 65.903 62.535-65.903 62.535-65.903.0.0.0.0C151.094 150.916 151.171 150.833 151.246 150.757L152.362 149.572S153.555 148.313 153.555 148.313 153.555 148.305 153.555 148.305 153.599 148.252 153.599 148.252c15.045-16.395 23.331-37.622 23.331-59.767C176.93 39.704 137.241.014 88.469.014 39.68.014-.007 39.704-.007 88.485c0 22.13 8.285 43.357 23.329 59.767L23.369 148.305z" id="path-1" class="cls-3" fill-rule="evenodd"/><circle id="circle-1" class="cls-4" cx="102" cy="97" r="47"/><path d="M88.469 134.58c25.473.0 46.132-20.652 46.132-46.133.0-25.474-20.659-46.132-46.132-46.132-25.489.0-46.148 20.658-46.148 46.132.0 25.481 20.659 46.133 46.148 46.133z" id="path-2" class="cls-5" fill-rule="evenodd"/></g></svg>

<svg xmlns="http://www.w3.org/2000/svg" xmlns:xlink="http://www.w3.org/1999/xlink" preserveAspectRatio="xMidYMid" width="177" height="217" viewBox="0 0 177 217">
  <defs>
    <style>

      .cls-3 {
        fill: #2476ff;
      }

      .cls-4 {
        fill: #1c5ac1;
      }

      .cls-5 {
        fill: #ededed;
      }
    </style>
  </defs>
  <g id="group-165svg">
    <path d="M23.369,148.305 C23.369,148.305 23.369,148.313 23.369,148.313 C23.369,148.313 24.817,149.844 24.817,149.844 C25.180,150.229 25.526,150.613 25.903,150.991 C25.903,150.991 25.919,150.991 25.919,150.991 C25.919,150.991 88.484,216.894 88.484,216.894 C88.484,216.894 151.019,150.991 151.019,150.991 C151.019,150.991 151.019,150.991 151.019,150.991 C151.094,150.916 151.171,150.833 151.246,150.757 C151.246,150.757 152.362,149.572 152.362,149.572 C152.362,149.572 153.555,148.313 153.555,148.313 C153.555,148.313 153.555,148.305 153.555,148.305 C153.555,148.305 153.599,148.252 153.599,148.252 C168.644,131.857 176.930,110.630 176.930,88.485 C176.930,39.704 137.241,0.014 88.469,0.014 C39.680,0.014 -0.007,39.704 -0.007,88.485 C-0.007,110.615 8.278,131.842 23.322,148.252 C23.322,148.252 23.369,148.305 23.369,148.305 Z" id="path-1" class="cls-3" fill-rule="evenodd"/>
    <circle id="circle-1" class="cls-4" cx="102" cy="97" r="47"/>
    <path d="M88.469,134.580 C113.942,134.580 134.601,113.928 134.601,88.447 C134.601,62.973 113.942,42.315 88.469,42.315 C62.980,42.315 42.321,62.973 42.321,88.447 C42.321,113.928 62.980,134.580 88.469,134.580 Z" id="path-2" class="cls-5" fill-rule="evenodd"/>
  </g>
</svg>
